X:1
T:Jenner, 76.76 D
T:Jenner, 76.76 D
T:Henry Lascelles Jenner, 1861
T:Public Domain Courtesy of the Cyber Hymnal™
C:Henry Lascelles Jenner, 1861
Z:Public Domain
Z:Courtesy of the Cyber Hymnal™
%%score ( 1 2 ) ( 3 4 )
L:1/8
Q:1/4=110
M:4/4
K:Bb
V:1 treble 
V:2 treble 
V:3 bass 
V:4 bass 
V:1
 [GB]2 | [^FA]2 G2 [FA]2 [GB]2 | (c3 B) [^FA]2 [=Fd]2 | [Fd]3 [Fd] [Fc]2 [Fc]2 | [Fd]6 [^FA]2 | %5
 [GB]2 [GB]2 [^FA]2 [FA]2 | [GB]4 [^FA]2 [=Fd]2 | [Fc]3 [DB] [DA]2 A2 | [B,G]6 [EG]2 | %9
 [EA]2 [EG]2 [D^F]2 [DF]2 x | (G2 B2) [DA]2 [DA]2 | [DB]2 [Dd]2 [Gd]2 [Gc]2 | [^Fd]6 [FA]2 | %13
 [GB]2 [GB]2 [^FA]2 [=Fd]2 | c3 (z B) [CA]2 [DA]2 | [DB]2 G2 [DA]3 [CA] | [B,G]6 |] %17
V:2
 x2 | x2 G2 x4 | G4 x4 | x8 | x8 | x8 | x8 | x6 (DC) | x8 | x9 | D4 x4 | x8 | x8 | x8 | F2 =E2 x5 | %15
 x2 G2 x4 | x6 |] %17
V:3
 [G,D]2 | [D,D]2 [E,B,]2 [D,D]2 [G,D]2 | ([C,E]3 [G,,D]) [D,D]2 [B,,D]2 | %3
 [B,,C]3 [C,B,] [F,B,]2 [F,A,]2 | [B,,B,]6 (B,D) | [G,,D]2 [B,,D]2 [D,D]2 [D,D]2 | %6
 D4 [D,D]2 [B,,D]2 | [F,A,]3 G, [D,G,]2 [D,^F,]2 | [G,,G,]6 [E,B,]2 | C3 z B, A,2 z C, | %10
 G,4 [D,^F,]2 [D,F,]2 | G,2 [F,A,]2 B,2 z x | [D,A,]6 [D,D]2 | [G,,D]2 [B,,D]2 [D,D]2 [B,,D]2 | %14
 [C,G,]4 F,2 [D,^F,]2 x | G,2 [E,G,]2 G,2 z x | [G,,G,]6 |] %17
V:4
 x2 | x8 | x8 | x8 | x6 D,2 | x8 | (G,,A,,B,,C,) x4 | x3 G, x4 | x8 | C,2 (C,2 D,3) A,2 | %10
 (B,,2 G,,2) x4 | G,2 E,3 (G,2 E,) | x8 | x8 | x4 ^F,2 x3 | G,2 D,3 (^F,2 D,) | x6 |] %17

